paymentMethods/przelewy24.svg

<svg width="128" height="64" viewBox="0 0 128 64" fill="none" xmlns="http://www.w3.org/2000/svg">
<rect width="128" height="64" rx="6" fill="white"/>
<path fill-rule="evenodd" clip-rule="evenodd" d="M33.456 34.7568L42.268 34.7488L41.948 36.7528L34.576 43.7928L40.76 43.7768L40.4 45.9408L31.296 45.9448L31.676 43.7088L38.74 36.9448H33.104L33.456 34.7568Z" fill="#D61726"/>
<path fill-rule="evenodd" clip-rule="evenodd" d="M22.9 31.3289C22 30.4049 19.472 30.4409 19.472 30.4409H12.752L10.176 45.9409H12.576L13.524 40.2009H18.176C18.176 40.2009 20 40.2729 21.272 39.6049C22.544 38.9369 22.9 37.3809 22.9 37.3809C22.9 37.3809 23.04 36.8129 23.156 36.1049C23.34 35.0009 23.556 33.5729 23.556 33.5729C23.6181 33.1736 23.5915 32.7656 23.4782 32.3777C23.3648 31.9899 23.1674 31.6318 22.9 31.3289V31.3289ZM21.044 34.0689C21.044 34.0929 20.836 35.3409 20.552 36.8129C20.5003 37.0632 20.3721 37.2912 20.185 37.4653C19.998 37.6395 19.7614 37.7511 19.508 37.7849C18.9473 37.8968 18.3756 37.9451 17.804 37.9289H13.92L14.772 32.7689H18.296C18.296 32.7689 20.592 32.7209 20.884 33.0809C21.0618 33.3776 21.119 33.7312 21.044 34.0689Z" fill="#D61726"/>
<path fill-rule="evenodd" clip-rule="evenodd" d="M24.136 34.7568H26.4L26.312 35.3128C26.312 35.3128 27.08 34.4768 29.284 34.6368C31.128 34.7648 31.712 35.6928 31.788 36.9328C31.8116 37.6948 31.7485 38.457 31.6 39.2048H29.252L29.456 37.9808C29.456 37.9808 29.588 37.2528 29.22 36.9808C28.852 36.7088 27.688 36.6208 26.888 37.1128C26.3748 37.5011 26.0094 38.0528 25.852 38.6768L25.112 42.8048L24.612 45.9328H22.264L23.464 38.8888L24.136 34.7648V34.7568Z" fill="#D61726"/>
<path fill-rule="evenodd" clip-rule="evenodd" d="M54.212 30.4368H56.524L53.936 45.9448L51.62 45.9408L54.212 30.4368Z" fill="#D61726"/>
<path fill-rule="evenodd" clip-rule="evenodd" d="M66.5439 34.7567L68.7559 34.7527L69.5359 42.6287L72.9399 34.7407L75.6759 34.7487L76.4799 42.6567L79.8879 34.7567L82.1839 34.7527L77.3039 45.9367H74.5759L73.7919 38.1047L70.3439 45.9367L67.6639 45.9447L66.5439 34.7567Z" fill="#D61726"/>
<path d="M43.728 42.7609V42.8249C43.704 42.8809 43.728 42.7529 43.728 42.7609Z" fill="#D61726"/>
<path d="M49.948 34.8487C49.0565 34.6452 48.1414 34.5644 47.228 34.6087C46.6652 34.5973 46.1026 34.6402 45.548 34.7367C45.548 34.7367 43.912 34.9727 42.984 36.1207C42.056 37.2687 41.784 39.7847 41.784 39.7847C41.784 39.7847 41.232 42.5847 41.384 43.4927C41.536 44.4007 41.832 45.2767 42.884 45.6767C43.5021 45.9231 44.1589 46.0585 44.824 46.0767C45.9209 46.1563 47.0234 46.0931 48.104 45.8887C48.9456 45.6915 49.7006 45.227 50.256 44.5647C50.4852 44.2654 50.6835 43.9438 50.848 43.6047C50.9842 43.316 51.0914 43.0146 51.168 42.7047L51.316 42.1007H48.916C48.916 42.1007 48.788 43.7007 47.496 43.8287C46.7545 43.9214 46.0063 43.9481 45.26 43.9087C45.016 43.9087 43.64 43.9567 43.728 42.8127V42.7287C43.7203 42.1682 43.7917 41.6093 43.94 41.0687L51.464 41.0447L51.78 39.1887C52.128 37.0847 51.876 35.4807 49.948 34.8487ZM49.448 38.9287H44.296L44.5 38.1287C44.5942 37.7789 44.7791 37.4601 45.036 37.2047C45.4057 36.9589 45.8363 36.8204 46.28 36.8047C47.1143 36.7206 47.956 36.7448 48.784 36.8767C48.9295 36.8976 49.067 36.9557 49.1834 37.0454C49.2997 37.1351 49.3909 37.2534 49.448 37.3887C49.5531 37.8967 49.5531 38.4207 49.448 38.9287V38.9287Z" fill="#D61726"/>
<path d="M57.916 42.7649V42.8289C57.9136 42.8076 57.9136 42.7862 57.916 42.7649V42.7649Z" fill="#D61726"/>
<path d="M64.14 34.8529C63.2485 34.6493 62.3334 34.5686 61.42 34.6129C60.856 34.5981 60.2918 34.6396 59.736 34.7369C59.736 34.7369 58.1 34.9769 57.172 36.1249C56.244 37.2729 55.972 39.7889 55.972 39.7889C55.972 39.7889 55.42 42.5889 55.572 43.4929C55.724 44.3969 56.024 45.2769 57.072 45.6809C57.6901 45.9273 58.3469 46.0627 59.012 46.0809C60.1089 46.1605 61.2114 46.0973 62.292 45.8929C63.1336 45.6956 63.8886 45.2311 64.444 44.5689C64.6667 44.2676 64.8583 43.9446 65.016 43.6049C65.1563 43.3165 65.2637 43.0133 65.336 42.7009L65.484 42.0969H63.084C63.084 42.0969 62.956 43.6969 61.664 43.8249C60.9225 43.9169 60.1744 43.945 59.428 43.9089C59.184 43.9089 57.828 43.9529 57.896 42.8129V42.7249C57.8883 42.1656 57.9597 41.6081 58.108 41.0689L65.632 41.0449L65.948 39.1889C66.332 37.0889 66.064 35.4809 64.14 34.8529ZM63.6 38.9249H58.464L58.668 38.1249C58.7617 37.7769 58.9451 37.4596 59.2 37.2049C59.5739 36.9731 60.0042 36.8486 60.444 36.8449C61.278 36.7575 62.12 36.7803 62.948 36.9129C63.0882 36.9318 63.2214 36.9857 63.3353 37.0696C63.4493 37.1534 63.5403 37.2646 63.6 37.3929C63.704 37.8982 63.704 38.4195 63.6 38.9249V38.9249Z" fill="#D61726"/>
<path fill-rule="evenodd" clip-rule="evenodd" d="M84.844 34.7569L86.324 42.9329L90.512 34.7449L92.868 34.7689L86.832 46.4609C86.832 46.4609 85.74 48.5769 85.064 49.1129C84.388 49.6489 83.972 49.8809 83.42 49.9449C82.9873 50.0209 82.5447 50.0209 82.112 49.9449L81.548 49.8489L81.9 47.7569C82.3942 47.8537 82.9037 47.84 83.392 47.7169C83.948 47.4969 84.396 46.5649 84.396 46.5649L84.672 46.0929L82.492 34.7729L84.844 34.7569Z" fill="#D61726"/>
<path fill-rule="evenodd" clip-rule="evenodd" d="M93.716 35.8687H96.1641L96.312 34.9247C96.312 34.9247 96.572 33.2247 97.148 32.9007C97.4081 32.768 97.6876 32.6776 97.976 32.6327C98.6713 32.5334 99.3745 32.4999 100.076 32.5327C101.084 32.5727 101.464 32.5807 102.476 32.6967C102.701 32.7101 102.911 32.8119 103.061 32.9798C103.211 33.1476 103.288 33.368 103.276 33.5927C103.273 33.6649 103.259 33.7363 103.236 33.8047L103.032 35.2847C102.983 35.6587 102.874 36.0221 102.708 36.3607C102.424 36.7133 102.034 36.9657 101.596 37.0807C100.796 37.3407 98.06 38.0407 98.06 38.0407L95.904 38.6607C95.1322 38.8923 94.4263 39.3036 93.844 39.8607C93.2744 40.4957 92.8789 41.2674 92.6961 42.1007C92.5961 42.5887 92.024 45.9327 92.024 45.9327H103.644L104.024 43.6087H94.824L94.9841 42.6887C94.9841 42.6887 95.0921 41.7127 95.4841 41.3927C95.7413 41.1488 96.0588 40.9776 96.404 40.8967C96.844 40.7407 98.344 40.3407 98.344 40.3407L101.812 39.3967C101.812 39.3967 103.704 38.9087 104.444 37.8687C105.184 36.8287 105.476 34.8567 105.476 34.8567C105.476 34.8567 105.68 32.9407 105.524 32.3367C105.415 31.9817 105.233 31.6533 104.99 31.3723C104.746 31.0914 104.448 30.864 104.112 30.7047C103.424 30.4007 102.7 30.2167 100.608 30.2487C98.5161 30.2807 97.484 30.3727 96.424 30.7607C95.9497 30.9346 95.521 31.214 95.1704 31.5778C94.8198 31.9416 94.5564 32.3803 94.4 32.8607C93.968 33.8087 93.7201 35.8567 93.7201 35.8567L93.716 35.8687Z" fill="#C8C8C8"/>
<path fill-rule="evenodd" clip-rule="evenodd" d="M115.6 40.1889L117.24 30.4329H114.36L105.356 40.0769L104.956 42.5169H112.8L112.224 45.9609H114.624L115.2 42.5169H117.424L117.824 40.1809L115.6 40.1889ZM113.2 40.1889H108.108L114.288 33.6049L113.2 40.1889Z" fill="#C8C8C8"/>
<path fill-rule="evenodd" clip-rule="evenodd" d="M28.916 31.7087H36.308C36.308 31.7087 37.968 30.3687 39.14 29.5087C40.312 28.6487 42.456 27.2927 42.456 27.2927L38.28 25.3367C38.28 25.3367 34.752 27.5247 33.252 28.5567C31.792 29.5087 28.916 31.7127 28.916 31.7127V31.7087Z" fill="#C8C8C8"/>
<path fill-rule="evenodd" clip-rule="evenodd" d="M44.8 25.9127L41.364 23.6047C43.7014 22.3193 46.1168 21.1811 48.596 20.1967C52.72 18.5487 54.92 17.8647 54.92 17.8647L55.62 21.1367C55.62 21.1367 51.644 22.4607 49.368 23.5367C47.7866 24.2356 46.2526 25.0374 44.776 25.9367L44.8 25.9127Z" fill="#C8C8C8"/>
<path fill-rule="evenodd" clip-rule="evenodd" d="M58.172 20.4048L57.576 17.0648C57.576 17.0648 61.808 15.9368 65.688 15.2128C69.568 14.4888 74.7201 14.1448 74.7201 14.1448L73.012 19.3208C70.0982 18.9648 67.1527 18.9527 64.236 19.2848C62.1931 19.53 60.1678 19.9041 58.172 20.4048V20.4048Z" fill="#C8C8C8"/>
<path fill-rule="evenodd" clip-rule="evenodd" d="M75.7 19.7528L78.552 14.0048C82.4562 13.9538 86.3588 14.1918 90.228 14.7168C95.636 15.5528 100.568 16.8368 100.472 16.8928L86.7719 24.0728C84.5156 22.71 82.1089 21.6134 79.6 20.8048C77.336 20.1328 75.7 19.7528 75.7 19.7528Z" fill="#C8C8C8"/>
<path fill-rule="evenodd" clip-rule="evenodd" d="M89.232 25.6408L92.2479 27.9368H117.016C116.917 27.2494 116.673 26.5909 116.3 26.0048C115.743 25.1833 115.092 24.4302 114.36 23.7608C113.635 23.1331 112.868 22.5557 112.064 22.0328C110.267 20.8678 108.372 19.8626 106.4 19.0288L89.2 25.6528L89.232 25.6408Z" fill="#C8C8C8"/>
</svg>

<svg xmlns="http://www.w3.org/2000/svg" width="128" height="64" fill="none"><rect width="128" height="64" fill="#fff" rx="6"/><path fill="#D61726" fill-rule="evenodd" d="m33.456 34.757 8.812-.008-.32 2.004-7.372 7.04 6.184-.016-.36 2.164-9.104.004.38-2.236 7.064-6.764h-5.636l.352-2.188ZM22.9 31.329c-.9-.924-3.428-.888-3.428-.888h-6.72l-2.576 15.5h2.4l.948-5.74h4.652s1.824.072 3.096-.596c1.272-.668 1.628-2.224 1.628-2.224s.14-.568.256-1.276c.184-1.104.4-2.532.4-2.532a2.753 2.753 0 0 0-.656-2.244Zm-1.856 2.74c0 .024-.208 1.272-.492 2.744a1.231 1.231 0 0 1-1.044.972c-.56.112-1.132.16-1.704.144H13.92l.852-5.16h3.524s2.296-.048 2.588.312c.178.297.235.65.16.988ZM24.136 34.757H26.4l-.088.556s.768-.836 2.972-.676c1.844.128 2.428 1.056 2.504 2.296.024.762-.04 1.524-.188 2.272h-2.348l.204-1.224s.132-.728-.236-1-1.532-.36-2.332.132c-.513.388-.879.94-1.036 1.564l-.74 4.128-.5 3.128h-2.348l1.2-7.044.672-4.124v-.008ZM54.212 30.437h2.312l-2.588 15.508-2.316-.004 2.592-15.504ZM66.544 34.757l2.212-.004.78 7.876 3.404-7.888 2.736.008.804 7.908 3.408-7.9 2.296-.004-4.88 11.184h-2.728l-.784-7.832-3.448 7.832-2.68.008-1.12-11.188Z" clip-rule="evenodd"/><path fill="#D61726" d="M43.728 42.76v.065c-.024.056 0-.072 0-.064Z"/><path fill="#D61726" d="M49.948 34.849a10.037 10.037 0 0 0-2.72-.24 8.765 8.765 0 0 0-1.68.128s-1.636.236-2.564 1.384c-.928 1.148-1.2 3.664-1.2 3.664s-.552 2.8-.4 3.708c.152.908.448 1.784 1.5 2.184a5.657 5.657 0 0 0 1.94.4c1.097.08 2.2.016 3.28-.188a4 4 0 0 0 2.152-1.324c.23-.3.428-.621.592-.96a4.82 4.82 0 0 0 .32-.9l.148-.604h-2.4s-.128 1.6-1.42 1.728c-.742.092-1.49.12-2.236.08-.244 0-1.62.048-1.532-1.096v-.084c-.008-.56.064-1.12.212-1.66l7.524-.024.316-1.856c.348-2.104.096-3.708-1.832-4.34Zm-.5 4.08h-5.152l.204-.8c.094-.35.28-.669.536-.924a2.4 2.4 0 0 1 1.244-.4 9.72 9.72 0 0 1 2.504.072.853.853 0 0 1 .664.512 3.8 3.8 0 0 1 0 1.54ZM57.916 42.765v.064a.285.285 0 0 1 0-.064Z"/><path fill="#D61726" d="M64.14 34.853a10.033 10.033 0 0 0-2.72-.24 8.477 8.477 0 0 0-1.684.124s-1.636.24-2.564 1.388c-.928 1.148-1.2 3.664-1.2 3.664s-.552 2.8-.4 3.704c.152.904.452 1.784 1.5 2.188a5.657 5.657 0 0 0 1.94.4c1.097.08 2.2.016 3.28-.188a4 4 0 0 0 2.152-1.324c.223-.301.414-.624.572-.964.14-.288.248-.592.32-.904l.148-.604h-2.4s-.128 1.6-1.42 1.728c-.742.092-1.49.12-2.236.084-.244 0-1.6.044-1.532-1.096v-.088a5.936 5.936 0 0 1 .212-1.656l7.524-.024.316-1.856c.384-2.1.116-3.708-1.808-4.336Zm-.54 4.072h-5.136l.204-.8c.094-.348.277-.665.532-.92a2.4 2.4 0 0 1 1.244-.36 9.545 9.545 0 0 1 2.504.068.843.843 0 0 1 .652.48 3.8 3.8 0 0 1 0 1.532Z"/><path fill="#D61726" fill-rule="evenodd" d="m84.844 34.757 1.48 8.176 4.188-8.188 2.356.024-6.036 11.692s-1.092 2.116-1.768 2.652c-.676.536-1.092.768-1.644.832a3.78 3.78 0 0 1-1.308 0l-.564-.096.352-2.092a3.417 3.417 0 0 0 1.492-.04c.556-.22 1.004-1.152 1.004-1.152l.276-.472-2.18-11.32 2.352-.016Z" clip-rule="evenodd"/><path fill="#C8C8C8" fill-rule="evenodd" d="M93.716 35.869h2.448l.148-.944s.26-1.7.836-2.024c.26-.133.54-.223.828-.268.695-.1 1.398-.133 2.1-.1 1.008.04 1.388.048 2.4.164a.852.852 0 0 1 .76 1.108l-.204 1.48a3.466 3.466 0 0 1-.324 1.076 2.12 2.12 0 0 1-1.112.72c-.8.26-3.536.96-3.536.96l-2.156.62a5.1 5.1 0 0 0-2.06 1.2 4.94 4.94 0 0 0-1.148 2.24c-.1.488-.672 3.832-.672 3.832h11.62l.38-2.324h-9.2l.16-.92s.108-.976.5-1.296a2 2 0 0 1 .92-.496c.44-.156 1.94-.556 1.94-.556l3.468-.944s1.892-.488 2.632-1.528c.74-1.04 1.032-3.012 1.032-3.012s.204-1.916.048-2.52a2.675 2.675 0 0 0-1.412-1.632c-.688-.304-1.412-.488-3.504-.456-2.092.032-3.124.124-4.184.512a3.336 3.336 0 0 0-2.024 2.1c-.432.948-.68 2.996-.68 2.996l-.004.012ZM115.6 40.189l1.64-9.756h-2.88l-9.004 9.644-.4 2.44h7.844l-.576 3.444h2.4l.576-3.444h2.224l.4-2.336-2.224.008Zm-2.4 0h-5.092l6.18-6.584-1.088 6.584ZM28.916 31.709h7.392s1.66-1.34 2.832-2.2c1.172-.86 3.316-2.216 3.316-2.216l-4.176-1.956s-3.528 2.188-5.028 3.22c-1.46.952-4.336 3.156-4.336 3.156v-.004ZM44.8 25.913l-3.436-2.308a64.095 64.095 0 0 1 7.232-3.408c4.124-1.648 6.324-2.332 6.324-2.332l.7 3.272s-3.976 1.324-6.252 2.4a39.613 39.613 0 0 0-4.592 2.4l.024-.024ZM58.172 20.405l-.596-3.34s4.232-1.128 8.112-1.852c3.88-.724 9.032-1.068 9.032-1.068l-1.708 5.176a37.439 37.439 0 0 0-8.776-.036c-2.043.245-4.068.62-6.064 1.12ZM75.7 19.753l2.852-5.748a79.15 79.15 0 0 1 11.676.712c5.408.836 10.34 2.12 10.244 2.176l-13.7 7.18a34.11 34.11 0 0 0-7.172-3.268c-2.264-.672-3.9-1.052-3.9-1.052ZM89.232 25.64l3.016 2.297h24.768a4.899 4.899 0 0 0-.716-1.932 12.694 12.694 0 0 0-1.94-2.244 20.998 20.998 0 0 0-2.296-1.728 36.648 36.648 0 0 0-5.664-3.004l-17.2 6.624.032-.012Z" clip-rule="evenodd"/></svg>
